border-right.svg

<svg fill="currentColor" viewBox="0 0 24 24"><path d="M11 9h2V7h-2m0-2h2V3h-2m0 10h2v-2h-2m4-6h2V3h-2m0 18h2v-2h-2m4 2h2V3h-2m-4 10h2v-2h-2m-4 6h2v-2h-2M3 9h2V7H3m0 10h2v-2H3m0-2h2v-2H3m8 10h2v-2h-2m-8 2h2v-2H3m4-6h2v-2H7m0-6h2V3H7M3 5h2V3H3m4 18h2v-2H7z"/></svg>

<svg  viewBox="0 0 24 24" fill="currentColor"><path  d="M11,9H13V7H11M11,5H13V3H11M11,13H13V11H11M15,5H17V3H15M15,21H17V19H15M19,21H21V3H19M15,13H17V11H15M11,17H13V15H11M3,9H5V7H3M3,17H5V15H3M3,13H5V11H3M11,21H13V19H11M3,21H5V19H3M7,13H9V11H7M7,5H9V3H7M3,5H5V3H3M7,21H9V19H7V21Z"/></svg>
